X: 1
T: Hills Of Sharon, The
M: 6/8
L: 1/8
R: jig
K: Dmaj
F3 FEF|EDB, A,B,D|E2E EDE|FEF E3|
F2F FEF|EDB, A,B,D|EDC D2D|EDC D3:|
B3 BAB|AGF E3|F2F BAF|E3 E2D|
EFF FED|ABB B2g|gfe dAF|E3 E2D:|
